src/qt/bitchain/res/img/img-empty-dark-transactions.svg

<svg xmlns="http://www.w3.org/2000/svg" id="ic_empty_Dark_transactions" width="100" height="100" viewBox="0 0 100 100">
    <defs>
        <style type="text/css">
            .cls-1{fill:#413d4a}.cls-2{fill:#a09ea5}.cls-3{fill:none}
        </style>
    </defs>
    <g id="Group_9036" data-name="Group 9036">
        <path id="Path_18988" d="M50 26a24 24 0 1 0 24 24 24 24 0 0 0-24-24zm0 42a18 18 0 1 1 18-18 18 18 0 0 1-18 18z" class="cls-1" data-name="Path 18988"/>
        <g id="Group_9035" data-name="Group 9035">
            <g id="Group_9033" data-name="Group 9033">
                <g id="Group_9032" data-name="Group 9032">
                    <path id="Rectangle_4692" d="M0 0h9.582v1.993H0z" class="cls-2" data-name="Rectangle 4692" transform="translate(41.529 44.03)"/>
                    <path id="Path_18989" d="M60.215 44.967a7.421 7.421 0 0 1-7.829 7.774h-6.3v9.965H43.6V50.488h8.447c3.387 0 5.6-2.053 5.6-5.521 0-3.428-2.211-5.421-5.558-5.421h-2.63l-6.3.02v-2.272h9.2c4.562 0 7.849 2.95 7.849 7.673" class="cls-2" data-name="Path 18989"/>
                </g>
            </g>
            <g id="Group_9034" data-name="Group 9034">
                <path id="Path_18990" d="M50 31a19 19 0 1 0 19 19 19.021 19.021 0 0 0-19-19zm0 36a17 17 0 1 1 17-17 17.019 17.019 0 0 1-17 17z" class="cls-2" data-name="Path 18990"/>
                <path id="Rectangle_4693" d="M0 0h2v4H0z" class="cls-2" data-name="Rectangle 4693" transform="translate(83 56)"/>
                <path id="Rectangle_4694" d="M0 0h2v8H0z" class="cls-2" data-name="Rectangle 4694" transform="translate(83 44)"/>
                <path id="Rectangle_4695" d="M0 0h2v8H0z" class="cls-2" data-name="Rectangle 4695" transform="translate(15 48)"/>
                <path id="Rectangle_4696" d="M0 0h2v4H0z" class="cls-2" data-name="Rectangle 4696" transform="translate(15 40)"/>
                <path id="Path_18991" d="M95.162 71H85v-7h-2v9h7.838L76 90.456 61.162 73H68v-2h-4.461a24.989 24.989 0 0 0-22.4-44.374L24 6.456 4.838 29H15v7h2v-9H9.162L24 9.544 38.838 27H32v2h4.461a24.989 24.989 0 0 0 22.4 44.374L76 93.544zM27 50a23 23 0 1 1 23 23 23.026 23.026 0 0 1-23-23z" class="cls-2" data-name="Path 18991"/>
            </g>
        </g>
    </g>
    <path id="Rectangle_4697" d="M0 0h100v100H0z" class="cls-3" data-name="Rectangle 4697"/>
</svg>

<?xml version="1.0" encoding="UTF-8" standalone="no"?>
<svg
   xmlns:dc="http://purl.org/dc/elements/1.1/"
   xmlns:cc="http://creativecommons.org/ns#"
   xmlns:rdf="http://www.w3.org/1999/02/22-rdf-syntax-ns#"
   xmlns:svg="http://www.w3.org/2000/svg"
   xmlns="http://www.w3.org/2000/svg"
   xmlns:sodipodi="http://sodipodi.sourceforge.net/DTD/sodipodi-0.dtd"
   xmlns:inkscape="http://www.inkscape.org/namespaces/inkscape"
   id="ic_empty_Dark_transactions"
   width="100"
   height="100"
   viewBox="0 0 100 100"
   version="1.1"
   sodipodi:docname="img-empty-dark-transactions.svg"
   inkscape:version="0.92.4 (unknown)">
  <metadata
     id="metadata24">
    <rdf:RDF>
      <cc:Work
         rdf:about="">
        <dc:format>image/svg+xml</dc:format>
        <dc:type
           rdf:resource="http://purl.org/dc/dcmitype/StillImage" />
      </cc:Work>
    </rdf:RDF>
  </metadata>
  <sodipodi:namedview
     pagecolor="#ffffff"
     bordercolor="#666666"
     borderopacity="1"
     objecttolerance="10"
     gridtolerance="10"
     guidetolerance="10"
     inkscape:pageopacity="0"
     inkscape:pageshadow="2"
     inkscape:window-width="1375"
     inkscape:window-height="876"
     id="namedview22"
     showgrid="false"
     inkscape:zoom="4.72"
     inkscape:cx="70.608051"
     inkscape:cy="67.222461"
     inkscape:window-x="65"
     inkscape:window-y="24"
     inkscape:window-maximized="1"
     inkscape:current-layer="ic_empty_Dark_transactions" />
  <defs
     id="defs4">
    <style
       type="text/css"
       id="style2">
            .cls-1{fill:#3d4a3d}.cls-2{fill:#9ea59e}.cls-3{fill:none}
        </style>
  </defs>
  <g
     id="g879">
    <path
       id="Path_18988"
       d="M 50,26 A 24,24 0 1 0 74,50 24,24 0 0 0 50,26 Z m 0,42 A 18,18 0 1 1 68,50 18,18 0 0 1 50,68 Z"
       class="cls-1"
       data-name="Path 18988"
       inkscape:connector-curvature="0"
       style="fill:#3d4a3d" />
    <path
       style="fill:#9ea59e"
       inkscape:connector-curvature="0"
       data-name="Rectangle 4692"
       class="cls-2"
       d="m 41.529,54.03 h 9.582 v 1.993 h -9.582 z"
       id="Rectangle_4692" />
    <g
       data-name="Group 9034"
       id="Group_9034">
      <path
         style="fill:#9ea59e"
         inkscape:connector-curvature="0"
         data-name="Path 18990"
         class="cls-2"
         d="M 50,31 A 19,19 0 1 0 69,50 19.021,19.021 0 0 0 50,31 Z m 0,36 A 17,17 0 1 1 67,50 17.019,17.019 0 0 1 50,67 Z"
         id="Path_18990" />
      <path
         style="fill:#9ea59e"
         inkscape:connector-curvature="0"
         transform="translate(83,56)"
         data-name="Rectangle 4693"
         class="cls-2"
         d="M 0,0 H 2 V 4 H 0 Z"
         id="Rectangle_4693" />
      <path
         style="fill:#9ea59e"
         inkscape:connector-curvature="0"
         transform="translate(83,44)"
         data-name="Rectangle 4694"
         class="cls-2"
         d="M 0,0 H 2 V 8 H 0 Z"
         id="Rectangle_4694" />
      <path
         style="fill:#9ea59e"
         inkscape:connector-curvature="0"
         transform="translate(15,48)"
         data-name="Rectangle 4695"
         class="cls-2"
         d="M 0,0 H 2 V 8 H 0 Z"
         id="Rectangle_4695" />
      <path
         style="fill:#9ea59e"
         inkscape:connector-curvature="0"
         transform="translate(15,40)"
         data-name="Rectangle 4696"
         class="cls-2"
         d="M 0,0 H 2 V 4 H 0 Z"
         id="Rectangle_4696" />
      <path
         style="fill:#9ea59e"
         inkscape:connector-curvature="0"
         data-name="Path 18991"
         class="cls-2"
         d="M 95.162,71 H 85 v -7 h -2 v 9 h 7.838 L 76,90.456 61.162,73 H 68 V 71 H 63.539 A 24.989,24.989 0 0 0 41.139,26.626 L 24,6.456 4.838,29 H 15 v 7 h 2 V 27 H 9.162 L 24,9.544 38.838,27 H 32 v 2 h 4.461 a 24.989,24.989 0 0 0 22.4,44.374 L 76,93.544 Z M 27,50 A 23,23 0 1 1 50,73 23.026,23.026 0 0 1 27,50 Z"
         id="Path_18991" />
    </g>
    <path
       data-name="Rectangle 4697"
       class="cls-3"
       d="M0 0h100v100H0z"
       id="Rectangle_4697" />
    <text
       id="text836"
       y="62.499996"
       x="39.618645"
       style="font-style:normal;font-weight:normal;font-size:40px;line-height:1.25;font-family:sans-serif;letter-spacing:0px;word-spacing:0px;fill:#9ea59e;fill-opacity:1;stroke:none"
       xml:space="preserve"><tspan
         style="font-size:34.66666794px;fill:#9ea59e;fill-opacity:1"
         y="62.499996"
         x="39.618645"
         id="tspan834"
         sodipodi:role="line">B</tspan></text>
  </g>
</svg>
